X:1
T:Decius, 87.87.887
T:Nicolaus Decius (1485-1541)
T:Decius, 87.87.887
T:Public Domain
C:Nicolaus Decius (1485-1541)
Z:Public Domain
%%score ( 1 2 ) ( 3 4 )
L:1/8
M:4/4
K:F
V:1 treble 
V:2 treble 
V:3 bass 
V:4 bass 
V:1
 (FG) | [FA]2 [FB]2 [Ec]2 (FG) | [FA]2 (FE) [FA]2 [FA]2 | (EF)(G[^FA]) [GB]2 [DG]2 | %4
 F2 [EG]2 F2 (FG) | [FA]2 [FB]2 (FE)(FG) | A2 [EG]2 [EA]2 [FA]2 | (EF)(G[^FA]) [GB]2 (DE) | %8
 F2 [EG]2 F2 F2 | [FG]2 [_EA]2 [DB]2 [CA]2 | [_EG]2 [D^F]2 [DG]2 (ED) | [CA]2 [FB]2 [Fc]2 (FG) | %12
 (GF) [EG]2 [EA]2 [FA]2 | (EF)(G[^FA]) [GB]2 [DG]2 | (F2 [EG]2) [CF]2 |] %15
V:2
 F2 | x6 B2 | x2 G2 x4 | A2 G x5 | F2 F2 F2 x2 | x4 c2 B2 | A2 x6 | A2 G x2 G2 x | F2 F2 F2 x2 | %9
 x8 | x6 G2 | x6 B2 | A2 x6 | A2 G x5 | F2 x4 |] %15
V:3
 (A,B,) | (F,E,) [D,B,]2 (B,A,)([D,D][E,C]) | [F,C]2 [C,C]2 [F,C]2 [D,D]2 | %3
 [A,^C]2 (B,A,) [G,D]2 [B,,B,]2 | A,2 B,2 [F,A,]2 (A,B,) | [E,C]2 [D,B,]2 [C,A,]2 ([D,D][E,C]) | %6
 (CF)(ED) [A,^C]2 (F,G,) | [A,^C]2 (B,A,) [G,D]2 [B,,D]2 | (A,,B,,)(CB,) [F,A,]2 [D,F,]2 | %9
 [C,C]2 [C,C]2 [G,B,]2 [_E,C]2 | (CB,) [D,A,]2 [G,B,]2 [C,C]2 | %11
 (F,_E,) [D,B,]2 [D,A,]2 ([D,D][=E,C]) | [F,C]2 (ED) [A,^C]2 (F,G,) | %13
 [A,^C]2 (B,A,) [G,D]2 (=CB,) | (A,2 B,2) [F,A,]2 |] %15
V:4
 F,2 | C2 x C,2 x3 | x8 | x2 D2 x4 | C,4 F,2 x2 | x8 | F,2 B,2 x D2 x | x2 D2 x4 | C2 C,2 x4 | x8 | %10
 C,2 x6 | C2 x6 | x2 B,2 x D2 x | x2 D2 x B,,2 x | C,4 x2 |] %15

